assets/icons/qvision/mediation.svg

<svg xmlns="http://www.w3.org/2000/svg" height="24" viewBox="0 0 24 24" width="24"><path d="M0 0h24v24H0z" fill="none"/><path d="M22 12l-4 4-1.41-1.41L18.17 13h-5.23c-.34 3.1-2.26 5.72-4.94 7.05C7.96 21.69 6.64 23 5 23c-1.66 0-3-1.34-3-3s1.34-3 3-3c.95 0 1.78.45 2.33 1.14 1.9-1.03 3.26-2.91 3.58-5.14h-3.1C7.4 14.16 6.3 15 5 15c-1.66 0-3-1.34-3-3s1.34-3 3-3c1.3 0 2.4.84 2.82 2h3.1c-.32-2.23-1.69-4.1-3.59-5.14C6.78 6.55 5.95 7 5 7 3.34 7 2 5.66 2 4s1.34-3 3-3c1.64 0 2.96 1.31 2.99 2.95 2.68 1.33 4.6 3.95 4.94 7.05h5.23l-1.58-1.59L18 8l4 4z"/></svg>

<svg width="24" height="24" viewBox="0 0 24 24" fill="none" xmlns="http://www.w3.org/2000/svg">
<g clip-path="url(#clip0_147_4428)">
<path d="M22 12L18 16L16.59 14.59L18.17 13H12.94C12.6 16.1 10.68 18.72 8 20.05C7.96 21.69 6.64 23 5 23C3.34 23 2 21.66 2 20C2 18.34 3.34 17 5 17C5.95 17 6.78 17.45 7.33 18.14C9.23 17.11 10.59 15.23 10.91 13H7.81C7.4 14.16 6.3 15 5 15C3.34 15 2 13.66 2 12C2 10.34 3.34 9 5 9C6.3 9 7.4 9.84 7.82 11H10.92C10.6 8.77 9.23 6.9 7.33 5.86C6.78 6.55 5.95 7 5 7C3.34 7 2 5.66 2 4C2 2.34 3.34 1 5 1C6.64 1 7.96 2.31 7.99 3.95C10.67 5.28 12.59 7.9 12.93 11H18.16L16.58 9.41L18 8L22 12Z" fill="#323232"/>
</g>
<defs>
<clipPath id="clip0_147_4428">
<rect width="24" height="24" fill="white"/>
</clipPath>
</defs>
</svg>
